X:1
T: Alice's Dollie
C:
R:Strathspey
Q:128
K:A
M:4/4
L:1/16
|:c2|e3f e3d cd3 A3c|d3e f3e df3 z2g2|a3g f2a2 ea3 c3A|B3A G3F EA3 z2c2|
e3f e3d cd3 A3c|d3e f3e df3 z2g2|a3g f2a2 ea3 c3A|B3A G3F EA3 z2G2|
A3e c3e A3e c3A|B3f d3f B3f d3B|A3e c3e A3a c3A|B3A G3F EA3 z2G2|
AAe2 c3e A3e c3A|BBf2 d3f B3f d3B|(3c2d2e2 (3d2e2f2 (3e2c2a2 (3e2d2A2|e3c d3B cA3 z2:|
